X: 1
T: James Cameron
C: Jerry Holland
B: Jerry Holland the 2nd Collection, 2000
S: Page from Concord Slow Scottish Session collection
R: march
Z: 2015 John Chambers <jc:trillian.mit.edu>
N: "James Cameron" was named after the father of Roderick Cameron, a baroque flute maker.
N: "Fiddler's Choise 1996" at lower right.
M: 2/4
L: 1/8
K: G
DE |\
"G"G2 GF G2 gf | "C"Te2 d<e "G"B2 ge | d2 Tge "Em"d>B A<G |"Am"TB2 A2 "D"A2 DE |
"G"G2 GF G2 gf | "C"Te2 d<e "G"B2 ge | "C"d2 ge "D"d>B A<c | "T"TB2 G2 G2 :|
|: zB | "C"c>c c<d "D"e2 d2 | "G"e>d d<e B2 ge | "G"d2 Tge "Em"d>B A<G | "Am"B2 A2 A2
[1 zB | "C"c>c c<d "D"e2 d2 | "G"e>d d<e B2 ge | "C"d2 Tge | "D"d>B A<c | "G"B2 G2 G2 :|
[2 DE |"G"G2 GF G2 gf | "C"Te2 d<e "G"B2 ge | "C"d2 ge "D"d>B A<c | "T"TB2 G2 G2 |]
